X: 2082
T: At The Bend In The Road
R: slide
M: 12/8
K: Dmajor
|:AFA d2B AFA d2d|efe B2c B2A F2B|
AFA d2B AFA d2d|efe B2c d3 d3:|
|:a3 a^ga b2a f3|efe B2c B2A F3|
[1 a3 a^ga b2a f3|efe B2c d3 d3:|
[2 AFA d2B AFA d2d|efe B2c d3 d3||

